Numix-GalliumOS/24/status/dropboxstatus-busy2.svg

<?xml version="1.0" encoding="UTF-8" standalone="no"?>
<svg
   xmlns:dc="http://purl.org/dc/elements/1.1/"
   xmlns:cc="http://creativecommons.org/ns#"
   xmlns:rdf="http://www.w3.org/1999/02/22-rdf-syntax-ns#"
   xmlns:svg="http://www.w3.org/2000/svg"
   xmlns="http://www.w3.org/2000/svg"
   xmlns:sodipodi="http://sodipodi.sourceforge.net/DTD/sodipodi-0.dtd"
   xmlns:inkscape="http://www.inkscape.org/namespaces/inkscape"
   width="24"
   height="24"
   viewBox="0 0 24 24"
   id="svg3005"
   version="1.1"
   inkscape:version="0.91 r"
   sodipodi:docname="dropboxstatus-busy2.svg">
  <metadata
     id="metadata3017">
    <rdf:RDF>
      <cc:Work
         rdf:about="">
        <dc:format>image/svg+xml</dc:format>
        <dc:type
           rdf:resource="http://purl.org/dc/dcmitype/StillImage" />
      </cc:Work>
    </rdf:RDF>
  </metadata>
  <defs
     id="defs3015" />
  <sodipodi:namedview
     pagecolor="#ffffff"
     bordercolor="#666666"
     borderopacity="1"
     objecttolerance="10"
     gridtolerance="10"
     guidetolerance="10"
     inkscape:pageopacity="0"
     inkscape:pageshadow="2"
     inkscape:window-width="1366"
     inkscape:window-height="747"
     id="namedview3013"
     showgrid="false"
     inkscape:zoom="9.8333333"
     inkscape:cx="-4.5126427"
     inkscape:cy="4.828498"
     inkscape:window-x="0"
     inkscape:window-y="21"
     inkscape:window-maximized="1"
     inkscape:current-layer="svg3005" />
  <path
     style="fill:#ececec;fill-opacity:1"
     inkscape:connector-curvature="0"
     id="path3011"
     d="M 7.4982094,4.5 3,8.0019536 7.4982094,11.002604 3,15.002279 12,21 21,15.002279 16.501791,11.002604 21,8.0019536 16.501791,4.5 12,8.0019536 Z M 12,9.502279 c 1.762037,0 3.373658,1.0778 4.064863,2.717773 l 0.934739,-0.34375 -0.78074,2.75 -2.532033,-1.468098 1.002785,-0.375978 C 14.216873,11.71517 13.156785,11.002604 12,11.002604 c -1.214087,0 -2.2992435,0.726888 -2.7504975,1.872722 L 7.8742538,12.345378 C 8.5475526,10.623047 10.177079,9.502279 12,9.502279 Z m -4.2510946,3.813477 2.5642656,1.52897 -1.0027853,0.408204 C 9.7902907,16.323568 10.832471,17.000326 12,17.000326 c 1.210505,0 2.31357,-0.755534 2.750497,-1.904948 l 1.375249,0.529948 C 15.473935,17.347656 13.815758,18.500651 12,18.500651 c -1.772782,0 -3.3593311,-1.070638 -4.064863,-2.717773 L 7.0003978,16.1875 Z" />
</svg>

<svg xmlns="http://www.w3.org/2000/svg" viewBox="0 0 24 24">
 <path d="m 7.498 4.5 -4.498 3.502 4.498 3 -4.498 4 9 5.998 9 -5.998 -4.498 -4 4.498 -3 -4.498 -3.502 -4.502 3.502 m 0 1.5 c 1.762 0 3.374 1.078 4.065 2.718 l 0.935 -0.344 -0.781 2.75 -2.532 -1.468 1 -0.376 c -0.473 -1.067 -1.533 -1.78 -2.69 -1.78 c -1.214 0 -2.299 0.727 -2.75 1.873 l -1.375 -0.53 c 0.673 -1.722 2.303 -2.843 4.126 -2.843 m -4.251 3.813 2.564 1.529 -1 0.408 c 0.48 1.071 1.522 1.747 2.69 1.747 c 1.211 0 2.314 -0.756 2.75 -1.905 l 1.375 0.53 c -0.652 1.722 -2.31 2.875 -4.126 2.875 c -1.773 0 -3.359 -1.071 -4.065 -2.718 l -0.935 0.405" style="fill:#ececec;fill-opacity:1"/>
</svg>
